X:403
T:Waiting on the Post
M:C|
L:1/8
C:© Paul Gitlitz, 2015
K:F
"F"[A,4A4][A,4F4]| [F4d4][F4c4] |"Bb"G^FGA "C"BAGE|"F"FGAd "C7"c4|!
"F"[AA][A^G][A2A2] [F4A4]|[Fd][F^c][F2d2] [F4=c4] |"Gm"[G,2G2]GA "C"BAGE|1"F"F3G F4:|2"F"F2c2f2a2||!
"Gm"bgdg b2b2|"F"afcf a2a2|"C"=BcBc dcBc|"F"fefg "F/A"afga|!
"Bb"bfdf b2b2|"F"afcf a2a2|"Gm"gaba "Bb"gfed|"C7"cBAG "F"F2a2|!
"Gm"bgdg b2b2|"F"afcf a2a2|"C"=BcBc dcBc|"F"fefg "F/A"afga|!
"Bb"bfdf b2b2|"F"afcf a2a2|"Gm"gaba "Bb"gfeg|"C7"bgec "F"f4|]
